X:1
T:Gläd dig du Kristi brud
T:Knut Håkanson (1887-1929)
T:Gläd dig du Kristi brud
T:Op 32 nr 1
%%score { ( 1 2 ) | ( 3 4 ) }
L:1/8
Q:1/4=120
M:2/2
K:G
V:1 treble nm="Vocals"
V:2 treble 
V:3 bass 
V:4 bass 
V:1
 (E2 A2) |"^Instrument change" B4 (B2 A2) |"^Instrument change" G4 A4"^Instrument change" | %3
w: Gläd *|dig du *|Kris- ti|
w: En *|kro- na *|Han ej|
w: Sakt- *|mo- dig *|mild och|
"^Instrument change" !fermata!B8 |"^Instrument change" z4 (A2 B2) | %5
w: brud|Och *|
w: bär|Men *|
w: god,|han *|
"^Instrument change" (G2"^Instrument change" BA) (F2 GF) | %6
w: möt * * din * *|
w: dock * * en * *|
w: ger * * de * *|
"^Instrument change" (E2"^Instrument change" ^DE) G4 | %7
w: Her- * * re|
w: ko- * * nung|
w: sva- * * ga|
"^Instrument change" (F2"^Instrument change" ^D2 E4) | %8
w: Gud. * *|
w: är. * *|
w: mod * *|
"^Instrument change" z4"^Instrument change" (F2 G2) | %9
w: Den *|
w: Hans *|
w: Han *|
"^Instrument change" B4"^Instrument change" (A2 Bc) | %10
w: sto- ra * *|
w: prakt är * *|
w: säll- het * *|
"^Instrument change" (B2"^Instrument change" A2) (G2 E2) | %11
w: dag * du *|
w: gans- * ka *|
w: har * att *|
"^Instrument change" (3(A2"^Instrument change" B2 G2) E4 | %12
w: skå- * * dat|
w: rin- * * ga|
w: fö- * * ra|
"^Instrument change" z4"^Instrument change" (3(F2 G2 A2) | %13
w: Som * *|
w: Dock * *|
w: Som * *|
"^Instrument change" B4"^Instrument change" (A2 c2) | %14
w: de pro- *|
w: kan han *|
w: skall hans *|
"^Instrument change" (B2"^Instrument change" A2) (G2 E2) | %15
w: fe- * ter *|
w: dö- * den *|
w: brud * till- *|
"^Instrument change" (A2 F2)"^Instrument change" (GA B2) | %16
w: bå- * dat, * *|
w: tvin- * ga, * *|
w: hö- * ra, * *|
"^Instrument change" z4"^Instrument change" e3 e |"^Instrument change" d4 B4"^Instrument change" | %18
w: ||
w: Ho- si-|an- na,|
w: ||
"^Instrument change" (A2"^Instrument change" F2) (G2 B2) | %19
w: |
w: pris * och *|
w: |
"^Instrument change" (A2"^Instrument change" F2) (GA !fermata!B2) | %20
w: |
w: ä- * ra * *|
w: |
"^Instrument change" z4"^Instrument change" (A B3) | %21
w: |
w: Vår *|
w: |
"^Instrument change" (G2"^Instrument change" BA) (F2 GF) | %22
w: |
w: ko- * * nung * *|
w: |
"^Instrument change" (E2"^Instrument change" ^DE) G4 | %23
w: |
w: vi * * hem-|
w: |
"^Instrument change" (F2"^Instrument change" D2) !fermata!E4 |] %24
w: |
w: bä- * ra!|
w: |
V:2
 E4 | E4 F4 | E4 E4 | !fermata!^D8 | z4 F4 | E4 D4 | C4 E4 | (C2 B,2 !fermata!B,4) | z4 (^D2 E2) | %9
w: |||||||||
 E4 E4 | F4 E4 | ^D4 E4 | z4 E4 | E4 E4 | ^D4 E4 | F4 (E2 !fermata!F2) | z4 G3 G | F4 G4 | D4 D4 | %19
w: ||||||||||
 D4 !fermata!D4 | z4 F4- | F2 E4 D2- | D2 C2 B,4 | (C2 B,2) !fermata!B,4 |] %24
w: ||* ko- nung|* vi *||
V:3
 C4 | B,4 B,4 | B,4 E,4 | !fermata!F,8 | z4 B,4 | (B,2 C2) (B,2 A,2) | (G,2 A,2) B,4 | %7
 (A,2 F,2 !fermata!G,4) | z4 B,4 | B,4 (C2 G,2) | (F,2 C2) (B,2 G,2) | (3(F,2 B,2 A,2) G,4 | %12
 z4 C4 | B,4 (C2 A,2) | (F,2 B,2) (B,2 ^C2) | D4 (E2 !fermata!^D2) | z4 B,3 C | (A,2 D2) D4 | %18
 (F,2 A,2) G,4 | (F,2 C2) (DC !fermata!B,2) | z4 B,4 | (B,2 C2) (A,2 B,2) | (G,2 F,G,) E,4 | %23
 (A,2 F,2) !fermata!G,4 |] %24
V:4
 A,4 | G,4 ^D,4 | (E,2 D,2) C,4 | !fermata!B,,8 | z4 ^D,4 | E,4 B,,4 | C,4 G,,4 | %7
 (A,,2 B,,2 !fermata!E,,4) | z4 (B,,2 E,2) | G,4 (A,2 E,2) | ^D,4 E,4 | B,,4 C,4 | z4 A,,4 | %13
 G,,4 A,,4 | B,,4 E,4 | D,4 (C,2 !fermata!B,,2) | z4 E,3 C, | D,4 G,4 | (D,2 C,2) (B,,2 G,,2) | %19
 (D,2 A,2) (B,A, !fermata!G,2) | z4 ^D,4 | E,4 B,,4 | C,4 G,,4 | (A,,2 B,,2) !fermata!E,,4 |] %24

